X:298
T: ICH TRINK UND TRINKEND FAELLT MIR BEI
N: B0350
O: Europa, Mitteleuropa, Deutschland
R: Trink - Lied
M: 3/4
L: 1/16
K: F
C2 | A3GF6C2 | B3AG4z2
c2 | c3cB2A2G2F2 | E2F2G4z2
G2 | G3GG2G2A2=B2 | d4c2z2
c4 | f3ed2c2=B2A2 | G2A=Bc6
C2 | A3GF6C2 | B3AG4z2
c2 | c3cB2A2G2F2 | E2F2G6
C2 | A3GF6F2 | B3AG4z2
c2 | c2def3cA2F2 | c8C4 | F4z6
C2 | A3GF6F2 | B3AG4z2
c2 | c2def3cA2F2 | c8C4 | F4z6

